packages/ui-icons/svg/Solid/syllabus.svg

<svg viewBox="0 0 1920 1920" version="1.1" xmlns="http://www.w3.org/2000/svg">
    <path d="M1801.44118,0 L1801.44118,1920 L219.029412,1920 L219.029412,1480.78431 L162.514706,1480.78431 C131.318588,1480.78431 106,1455.48549 106,1424.31373 C106,1393.14196 131.318588,1367.84314 162.514706,1367.84314 L162.514706,1367.84314 L219.029412,1367.84314 L219.029412,1029.01961 L162.514706,1029.01961 C131.318588,1029.01961 106,1003.72078 106,972.54902 C106,941.377255 131.318588,916.078431 162.514706,916.078431 L162.514706,916.078431 L219.029412,916.078431 L219.029412,577.254902 L162.514706,577.254902 C131.318588,577.254902 106,551.956078 106,520.784314 C106,489.612549 131.318588,464.313725 162.514706,464.313725 L162.514706,464.313725 L219.029412,464.313725 L219.029412,0 L1801.44118,0 Z M1279.72674,1389.70581 L640.287953,1389.70581 L640.287953,1502.64581 L1279.72674,1502.64581 L1279.72674,1389.70581 Z M1388.89922,1174.87637 L640.287953,1174.87637 L640.287953,1287.81637 L1388.89922,1287.81637 L1388.89922,1174.87637 Z M1279.72674,640.031283 L640.287953,640.031283 L640.287953,752.971285 L1279.72674,752.971285 L1279.72674,640.031283 Z M1388.89922,425.201841 L640.287953,425.201841 L640.287953,538.141843 L1388.89922,538.141843 L1388.89922,425.201841 Z" stroke="none" stroke-width="1" fill-rule="evenodd"/>
</svg>

<svg viewBox="0 0 1920 1920" version="1.1" xmlns="http://www.w3.org/2000/svg">
    <path d="M219.03 0H1801.44v1920H219.03v-439.216h-56.514c-31.196 0-56.515-25.299-56.515-56.47 0-31.172 25.319-56.47 56.515-56.47h56.514V1029.02h-56.514c-31.196 0-56.515-25.3-56.515-56.471 0-31.172 25.319-56.47 56.515-56.47h56.514V577.254h-56.514c-31.196 0-56.515-25.299-56.515-56.47 0-31.172 25.319-56.471 56.515-56.471h56.514V0zm421.258 1389.706v112.94h639.439v-112.94H640.288zm0-964.504v112.94h748.611v-112.94H640.288zm0 214.83v112.94h639.439v-112.94H640.288zm0 534.844v112.94h748.611v-112.94H640.288z" stroke="none" stroke-width="1" fill-rule="evenodd"/>
</svg>
